X:1
T:Ah! cruel Amarillis
T:#
%%score { 1 | 2 } 3 { ( 4 5 ) | 6 }
L:1/8
Q:1/4=120
M:4/4
K:C
V:1 treble nm="Soprano I" snm="S"
V:2 treble 
V:3 treble nm="Alto" snm="A"
V:4 treble nm="Midi_7"
V:5 treble 
V:6 bass 
V:1
"^Ah! cruel Amarillis""^John Wilbye\n (1574-1638)" z4!p! _B4- | B4 A4 | G4 z2 ^FF | G4 D4 | %4
w: Ah!|* cru-|el A- ma-|ril- lis,|
 z4 c4- | c4 B4 |[M:4/4] A4 z2 ^GG | A4 E4 | e3 e d2 c2 | B6 B2 | B2 B2 c3 B | A2 A2 B3 A | %12
w: Ah!|* cru-|el A- ma-|ril- lis,|since thou tak'st de-|light To|hear the ac- cents|of a dole- ful|
 ^G2 E2 z2 e2 | d2 B2 c3 B | A2 A2 B3 A | (^G^F G2) A4- | A2 D4 E2 | ^C2 D2 (D2 C2) | D4 z2!f! E2 | %19
w: dit- ty, to|hear the ac- cents|of a dole- ful|dit\- * * ty,|* of a|dole- ful dit\- *|ty, To|
 ^F2 F2 z2 E2 | ^F2 F2 z2 A2 | B2 B2 z2 A2 | B2 B4 (Bc) | d2 d2 d2 d2 | c2 e2 d2 B2 | %25
w: tri- umph, to|tri- umph, to|tri- umph, to|tri- umph, to *|tri- umph still with-|out re- morse or|
 c2 A2!pp! c4- | c4 B2 A2 | ^G4 A4 | B8- | B2 A2 A4- | A4 ^G4 | A4 z4 | e8- | e4 d2 c2 | B4 e4 | %35
w: pi- ty; I|* loathe this|life, death|must|* my sor\-|* rows|rights,|I|* loathe this|life, death|
 d4 c4 | e4 d4 | c2!mf! G2 G2 G2 | c4 z2 A2 | A2 A2 d4 | z2 G2 B2 d2 | d6 ^c2 | dAAB =c4 | %43
w: must my|sor- rows|right; And lest vain|hope, and|lest vain hope|my mi- se-|ries re-|new, Come quick- ly, death,|
 z GGA B4- | B2 B2 A2 G2 | ^F8 | z4!pp! d4 | d8 | d4 z2 AA | B4 G4 | z4 e4 | e8 | e4 z2 BB | %53
w: come quick- ly, death,|* 'Reave me of|breath.|Ah!|cru-|el A- ma-|ril- lis,|Ah!|cru-|el A- ma-|
 ^c4 A4 | G4 =c4- | c4 B4 | z4 z2 dd | e4 c4 | B8 | c6 ^cc | d2 d4 ^FF | G2 G4 d2 | e6 ee | %63
w: ril- lis,|Ah! cru\-|* el|A- ma-|ril- lis,|cru-|el A- ma-|ril- lis, A- ma-|ril- lis, cru-|el A- ma-|
 ^f4 d4- | d4 c4- | %65
w: ril- lis,|* cru\-|
[Q:1/4=117][Q:1/4=117] c4[Q:1/4=114][Q:1/4=114] B2[Q:1/4=112][Q:1/4=112] (A[Q:1/4=111][Q:1/4=111]G) | %66
w: * el, a\- *|
[Q:1/4=108][Q:1/4=108] B4[Q:1/4=105][Q:1/4=105] z2[Q:1/4=103][Q:1/4=103] A2 | %67
w: dieu, a-|
[Q:1/4=102][Q:1/4=102] G16 |] %68
w: dieu.|
V:2
 z4!p! d4 | d8 | d4 z2 AA | B4 G4 | z4 e4 | e8 |[M:4/4] e4 z2 BB | ^c4 A4 | G3 G B2 A2 | ^G8 | %10
w: Ah!|cru-|el A- ma-|ril- lis,|Ah!|cru-|el A- ma-|ril- lis,|since thou tak'st de-|light|
 z4 z2 e2 | c2 c2 d3 c | (BA) B2 A2 A2- | A2 ^G2 A4 | z2 e2 e2 c2 | B2 B2 ^c2 c2 | %16
w: To|hear the ac- cents|of * a dole- ful|* dit- ty,|to hear the|ac- cents of a|
 (d3 =c BA) (G^F) | (E2 =F2 E4) | ^F2!f! (FG) A2 A2 | z2 (^FG) A2 A2 | z2 A2 d2 d2 | %21
w: dole\- * * * ful *|dit\- * *|ty, To * tri- umph,|to * tri- umph,|to tri- umph,|
 z2 (Bc) d2 d2 | z2 (Bc) d2 d2 | B6 A2 | A2 A2 A2 ^G2 | A2 A2!pp! e4- | e4 d2 c2 | B4 c4 | d8- | %29
w: to * tri- umph,|to * tri- umph|still with-|out re- morse or|pi- ty; I|* loathe this|life, death|must|
 d4 c4 | B4 B4 | A4 c4- | c4 B2 A2 | ^G8- | G4 c4 | B2 (AB) (c4- | c2 BA) B4 | c6!mf! G2 | %38
w: * my|sor- rows|right, I|* loathe this|life,|* death|must my * sor\-|* * * rows|right; And|
 G2 G2 A4 | z2 A2 A2 A2 | B6 B2 | A2 A2 G2 G2 | ^FDFG A4 | z EE^F G4- | G2 G2 ^F2 G2 | A8 | %46
w: lest vain hope,|and lest vain|hope my|mi- se- ries re-|new, Come quick- ly, death,|come quick- ly, death,|* 'Reave me of|breath.|
 z4!pp! _B4- | B4 A4 | G4 z2 ^FF | G4 D4 | z4 c4- | c4 B4 | A4 z2 ^GG | A4 E4 | z4 e4- | e4 d4 | %56
w: Ah!|* cru-|el A- ma-|ril- lis,|Ah!|* cru-|el A- ma-|ril- lis,|Ah!|cru\- *|
 c4 z2 BB | c4 G2 A2- | A2 ^G2 z2 GG | A4 E4 | z4 A4 | B6 BB | c2 c4 ^cc | d2 d4 ^FF | G6 A2 | %65
w: el A- ma-|ril- lis, cru|* el A- ma-|ril- lis,|cru-|el A- ma-|ril- lis, A- ma-|ril- lis, A- ma-|ril- lis,|
 ^F4 G4- | G4 ^F4 | G16 |] %68
w: cru- el,|* a-|dieu.|
V:3
!p! G,8 | D6 C2 | B,2 C2 D4 | G,8 | A,8 | E6 D2 |[M:4/4] ^C2 D2 E4 | A,8 | C3 C G,2 A,2 | E,8 | %10
w: Ah!|cru- el|A- ma- ril-|lis,|Ah!|cru- el|A- ma- ril-|lis,|since thou tak'st de-|~light|
 z2 E2 E2 E2 | F3 E D2 D2 | (E3 D CB,) C2 | B,4 A,4- | A,2 A,2 ^G,2 A,2 | E3 D ^CB, A,G, | %16
w: To hear the|ac- cents of a|dole\- * * * ful|dit- ty,|* to hear the|ac- cents of * a *|
 ^F,4 G,4 | A,8 | D6!f! ^C2 | D2 D2 z2 A,2 | D2 D2 z2 D2 | G2 G2 z2 ^F2 | G2 G4 G,2 | %23
w: dole- ful|dit-|ty, To|tri- umph, to|tri- umph, to|tri- umph, to|tri- umph still|
 (G,3 A, B,C D2) | A,2 C2 B,2 B,2 | A,4 A,4 |!pp! E8- | E4 D2 C2 | B,4 B,4 | C6 D2 | E4 E4 | %31
w: with\- * * * *|out re- morse or|pi- ty;|I|* loathe this|life, death|must my|sor- rows|
 A,4 A4- | A4 G2 F2 | E8- | E4 C4 | G4 (E3 F) | G4 G4 | C6!mf! C2 | C2 C2 F4- | F2 D2 D2 D2 | %40
w: right, I|* loathe this|life,|* death|must my *|sor- rows|right; And|lest vain hope,|* and lest vain|
 G6 G,2 | D2 F2 E2 E2 | D4 z A,A,B, | C4 z G,G,A, | B,2 G,2 D2 E2 | D8 |!pp! G8 | D6 C2 | %48
w: hope my|mi- se- ries re-|new, Come quick- ly,|death, come quick- ly,|death, 'Reave me of|breath.|Ah!|cru- el|
 B,2 C2 D4 | G,8 | A,8 | E6 D2 | ^C2 D2 E4 | A,8 | =C8 | G6 F2 | E2 F2 G4 | C8 | E8 | A,6 A,A, | %60
w: A- ma- ril-|lis,|Ah!|cru- el|A- ma- ril-|lis,|Ah!|cru- el|A- ma- ril-|lis,|cru-|el A- ma-|
 D4 D4 | G,8 | C4 A,2 A,2 | D8 | B,4 C4 | D8 | D8 | G,16 |] %68
w: ril- lis,|cru-|el A- ma-|ril-|lis, a-|dieu,|a-|dieu.|
V:4
 z4 _B4- | B4 A4 | G4 z2 ^FF | G4 D4 | z4 c4- | c4 B4 |[M:4/4] A4 z2 ^GG | A4 E4 | e3 e d2 c2 | %9
 B6 B2 | B2 B2 c3 B | A2 A2 B3 A | ^G2 E2 x2 e2 | d2 B2 c3 B | A2 A2 B3 A | ^G^F G2 A4- | %16
 A2 D4 E2 | ^C2 D2 D2 C2 | D4 x2 E2 | ^F2 F2 x2 E2 | ^F2 F2 x2 A2 | B2 B2 x2 A2 | B2 B4 Bc | %23
 d2 d2 d2 d2 | c2 e2 d2 B2 | c2 A2 c4- | c4 B2 A2 | ^G4 A4 | B8- | B2 A2 A4- | A4 ^G4 | A4 x4 | %32
 e8- | e4 d2 c2 | B4 e4 | d4 c4 | e4 d4 | c2 G2 G2 G2 | c4 z2 A2 | A2 A2 d4 | z2 G2 B2 d2 | %41
 d6 ^c2 | dAAB =c4 | z GGA B4- | B2 B2 A2 G2 | ^F8 | z4 d4 | d8 | d4 z2 AA | B4 G4 | z4 e4 | e8 | %52
 e4 z2 BB | ^c4 A4 | G4 =c4- | c4 B4 | x4 z2 dd | e4 c4 | B8 | c6 ^cc | d2 d4 ^FF | G2 G4 d2 | %62
 e6 ee | ^f4 d4- | d4 c4- | c4 B2 AG | B4 z2 A2 | G16 |] %68
V:5
 z4 d4 | d8 | d4 z2 AA | B4 G4 | z4 e4 | e8 |[M:4/4] e4 z2 BB | ^c4 A4 | G3 G B2 A2 | ^G8 | %10
 x4 z2 e2 | c2 c2 d3 c | BA B2 A2 A2- | A2 ^G2 A4 | x2 e2 e2 c2 | B2 B2 ^c2 c2 | d3 =c BAG^F | %17
 E2 =F2 E4 | ^F2 FG A2 A2 | x2 ^FG A2 A2 | x2 A2 d2 d2 | x2 Bc d2 d2 | x2 Bc d2 d2 | B6 A2 | %24
 A2 A2 A2 ^G2 | A2 A2 e4- | e4 d2 c2 | B4 c4 | d8- | d4 c4 | [AB]4 B4 | A4 c4- | c4 B2 A2 | ^G8- | %34
 G4 c4 | B2 AB c4- | c2 BA B4 | c6 G2 | G2 G2 A4 | x2 A2 A2 A2 | B6 B2 | A2 A2 G2 G2 | ^FDFG A4 | %43
 z EE^F G4- | G2 G2 ^F2 G2 | A8 | z4 _B4- | B4 A4 | G4 z2 ^FF | G4 D4 | z4 c4- | c4 B4 | %52
 A4 z2 ^GG | A4 E4 | x4 e4- | e4 d4 | c4 x2 BB | c4 G2 A2- | A2 ^G2 z2 GG | A4 E4 | z4 A4 | B6 BB | %62
 c2 c4 ^cc | d2 d4 ^FF | G6 A2 | ^F4 G4- | G4 ^F4 | G16 |] %68
V:6
 G,8 | D6 C2 | B,2 C2 D4 | G,8 | A,8 | E6 D2 |[M:4/4] ^C2 D2 E4 | A,8 | C3 C G,2 A,2 | E,8 | %10
 z2 E2 E2 E2 | F3 E D2 D2 | E3 D CB, C2 | B,4 A,4- | A,2 A,2 ^G,2 A,2 | E3 D ^CB,A,G, | ^F,4 G,4 | %17
 A,8 | D6 ^C2 | D2 D2 z2 A,2 | D2 D2 z2 D2 |[I:staff -1] G2 G2[I:staff +1] x2[I:staff -1] ^F2 | %22
 G2 G4[I:staff +1] G,2 | G,3 A, B,C D2 | A,2 C2 B,2 B,2 | A,4 A,4 | E8- | E4 D2 C2 | B,4 B,4 | %29
 C6 D2 | E4 E4 | A,4[I:staff -1] A4- | A4 G2 F2 | E8- |[I:staff +1] E4 C4 |[I:staff -1] G4 E3 F | %36
 G4 G4 | C6 C2 | C2 C2 F4- |[I:staff +1] F2 D2 D2 D2 |[I:staff -1] G6[I:staff +1] G,2 | %41
 D2 F2 E2 E2 | D4 z A,A,B, | C4 z G,G,A, | B,2 G,2 D2 E2 | D8 |[I:staff -1] G8 | %47
[I:staff +1] D6 C2 | B,2 C2 D4 | G,8 | A,8 | E6 D2 | ^C2 D2 E4 | A,8 | =C8 |[I:staff -1] G6 F2 | %56
 E2 F2 G4 |[I:staff +1] C8 | E8 | A,6 A,A, | D4 D4 | G,8 | C4 A,2 A,2 | D8 | B,4 C4 | D8 | D8 | %67
 G,16 |] %68

